X: 30623
T: One To One
R: waltz
M: 3/4
K: Dmajor
D3EFA|B2A2B2|d3 AA d|F2 E4|
D3EFA|B2A2B2|d2 e2 ef|e4 e2|
fd df ed|B2 A2 AB|dA Ad AF|E2D4||
[1 D3E FA|Bd3A AF|E2D3E|D6:|
[2 D3 E FA|Bd AF ED|~B, A,3 B,2,|D6||
|:f2 f2 f2|e2 e2 e2|de dB BA|~F2 E2 (3DFA|
f4 (3DFA|e4 (3DFA|dB AF ED|E6|
fe df ed|~B2 A2 AB|dA AB AF|~E2 D4|
[1 D3E FA|Bcd3AA|F E2 D3E|D6:|
[2 D3E FA|Bd AF ED|B, A,2 B,2|D6||

